X:155
T:Demple, The
M:C
L:1/8
B:Thompson's Compleat Collection of 200 Favourite Country Dances, vol. 1 (London, 1757)
Z:Transcribed and edited by Flynn Titford-Mock, 2007
Z:abc's:AK/Fiddler's Companion
K:D
A|d2 fd ecAc|BGEB AFDA|d2 fd ea^gf|edcB A2 A:|
|:A|B2 G>B A2 F>A|GGEG F2 DA|B2 G>B AdcB|AGFE D2 D:|

